X: 16168
T: Green Mountain Petronella
R: barndance
M: 4/4
K: Gmajor
|:GE|D2 G2 GF G2|D2 B2 B3 d|c2 A2 ABcd|e2 d2 d^cdB|
D2 G2 GFGE|D2 B2 B2 d2|c2 cA DEFG|A2 G2 G2:|
|:B/c/d|g2 g2 f2 f2|efge d2 d2|edef g2 B2|B2 A2 A2 Bd|
g2 g2 f2 gf|e2 ge dBGd|e2 ef gedc|B2 A2 G2:|
P: notated swung
|:G>E|D2 G2 G>F G2|D2 B2 B2- B>d|c2 A2 A>Bc>d|e2 d2 d>^cd>B|
D2 G2 G>FG>E|D2 B2 B2 d2|c2 c>A D>EF>G|A2 (3GAG G2:|
|:(3Bcd|g2 g2 f2 f2|e>fg>e d2 d2|e>de>f g2 (3BcB|B2 A>^G A2 B>d|
g2 (3gag f2 g>f|e2 g>e d>BG>d|e2 e>f g>ed>c|B2 A2 G2:|

